svg/phone_in_talk.svg

<svg xmlns="http://www.w3.org/2000/svg" viewBox="0 0 24 24"><path d="M15 12h2a5 5 0 0 0-5-5v2a3 3 0 0 1 3 3m4 0h2c0-5-4.03-9-9-9v2c3.86 0 7 3.13 7 7m1 3.5c-1.25 0-2.45-.2-3.57-.57-.35-.11-.74-.03-1.02.25l-2.2 2.2a15.1 15.1 0 0 1-6.59-6.59l2.2-2.2c.28-.28.36-.67.25-1.02A11.4 11.4 0 0 1 8.5 4a1 1 0 0 0-1-1H4a1 1 0 0 0-1 1 17 17 0 0 0 17 17 1 1 0 0 0 1-1v-3.5a1 1 0 0 0-1-1"/></svg>

<?xml version="1.0" encoding="UTF-8"?><!DOCTYPE svg PUBLIC "-//W3C//DTD SVG 1.1//EN" "http://www.w3.org/Graphics/SVG/1.1/DTD/svg11.dtd"><svg xmlns="http://www.w3.org/2000/svg" xmlns:xlink="http://www.w3.org/1999/xlink" version="1.1" id="mdi-phone-in-talk" width="24" height="24" viewBox="0 0 24 24"><path d="M15,12H17A5,5 0 0,0 12,7V9A3,3 0 0,1 15,12M19,12H21C21,7 16.97,3 12,3V5C15.86,5 19,8.13 19,12M20,15.5C18.75,15.5 17.55,15.3 16.43,14.93C16.08,14.82 15.69,14.9 15.41,15.18L13.21,17.38C10.38,15.94 8.06,13.62 6.62,10.79L8.82,8.59C9.1,8.31 9.18,7.92 9.07,7.57C8.7,6.45 8.5,5.25 8.5,4A1,1 0 0,0 7.5,3H4A1,1 0 0,0 3,4A17,17 0 0,0 20,21A1,1 0 0,0 21,20V16.5A1,1 0 0,0 20,15.5Z" /></svg>
